X: 1
T: Auld Pipe, The
M: 4/4
L: 1/8
R: reel
K: Amix
|:A2A2 GAAB|e2 de aede|a2 ea gedB|A2A2  BGGB|
ABAG A2 AB|e2 de gede|a2 ea gedB|A2A2 BGGB:|
|:a2 ea gede|a2 ea gede|a2 ea gedB|A2A2 BGGB|
ABAG A2 AB|e2 de gede|a2 ea gedB|A2A2 BGGB:|
|:A2A2 GAAB|e2 de gedB|A2A2 GAeg|e2 dA BGGB|
ABAG A2 AB|e2 de gede|a2 ea gedB|A2A2 BGGB:|
|:a2a2 gede|a2a2 gede|a2 ea gedB|A2A2 BGGB|
ABAG A2 AB|e2 de gede|a2 ea gedB|A2A2 BGGB:|
